static/assets/images/networks/tron.svg

<svg width="256" height="256" viewBox="0 0 256 256" fill="none" xmlns="http://www.w3.org/2000/svg">
<path d="M128 256C198.692 256 256 198.692 256 128C256 57.3076 198.692 0 128 0C57.3076 0 0 57.3076 0 128C0 198.692 57.3076 256 128 256Z" fill="#E3453D"/>
<path d="M175.894 75.1051L56.7061 53.2943L119.422 210.235L206.823 104.357L175.894 75.1051ZM173.972 84.7259L192.207 101.953L142.33 110.935L173.972 84.7259ZM131.507 109.126L78.9413 65.7824L164.854 81.4981L131.507 109.126ZM127.764 116.805L119.195 187.253L72.9771 71.6208L127.764 116.805ZM135.693 120.535L190.915 110.596L127.578 187.335L135.693 120.535Z" fill="white"/>
</svg>

<svg xmlns="http://www.w3.org/2000/svg" fill="none" viewBox="0 0 256 256"><path fill="#E3453D" d="M128 256c70.692 0 128-57.308 128-128S198.692 0 128 0 0 57.308 0 128s57.308 128 128 128"/><path fill="#fff" d="M175.894 75.105 56.706 53.295l62.716 156.94 87.401-105.878zm-1.922 9.62 18.235 17.228-49.877 8.982zm-42.465 24.401L78.941 65.782l85.913 15.716zm-3.743 7.679-8.569 70.448L72.977 71.621zm7.929 3.73 55.222-9.939-63.337 76.739z"/></svg>
